svgs/duotone/user-pilot.svg

<svg xmlns="http://www.w3.org/2000/svg" viewBox="0 0 448 512"><!--! Font Awesome Pro 6.3.0 by @fontawesome - https://fontawesome.com License - https://fontawesome.com/license (Commercial License) Copyright 2023 Fonticons, Inc. --><defs><style>.fa-secondary{opacity:.4}</style></defs><path class="fa-primary" d="M319.7 352.5L224 416l-95.7-63.49C57.05 355.2 0 413.4 0 485.3C0 500.1 11.94 512 26.66 512H421.3C436.1 512 448 500.1 448 485.3C448 413.4 390.1 355.2 319.7 352.5zM368 448h-32c-8.836 0-16-7.164-16-16c0-8.838 7.164-16 16-16h32c8.836 0 16 7.162 16 16C384 440.8 376.8 448 368 448zM78.54 102.4v44.04C119.1 164.9 169.4 176 224 176s104.9-11.08 145.5-29.55V102.4l21.96-22.3c4.564-4.635 7.129-10.93 7.129-17.48c0-11.35-7.602-21.24-18.44-23.99l-148.3-37.67c-5.096-1.295-10.43-1.295-15.52 0l-148.3 37.67C57.06 41.39 49.46 51.28 49.46 62.62c0 6.555 2.564 12.85 7.129 17.48L78.54 102.4zM161.7 72.85c3.969-7.875 13.56-11.09 21.47-7.156L224 86.13l40.84-20.44c7.938-3.969 17.5-.7505 21.47 7.156c3.938 7.906 .75 17.5-7.156 21.47l-48 23.1C228.9 119.4 226.4 120 224 120S219.1 119.4 216.8 118.3l-48-23.1C160.9 90.35 157.8 80.75 161.7 72.85z"/><path class="fa-secondary" d="M346 155.5C349.5 167.1 351.1 179.2 351.1 192c0 70.75-57.22 128-127.1 128S96 262.8 96 192c0-12.79 2.488-24.87 5.998-36.5C137.9 168.3 179.3 176 224 176S310.1 168.3 346 155.5z"/></svg>

<svg xmlns="http://www.w3.org/2000/svg" viewBox="0 0 448 512"><!-- Font Awesome Pro 6.0.0-alpha2 by @fontawesome - https://fontawesome.com License - https://fontawesome.com/license (Commercial License) --><defs><style>.fa-secondary{opacity:.4}</style></defs><path d="M346.002 155.496C349.512 167.133 352 179.207 352 192C352 262.75 294.75 320 224 320S96 262.75 96 192C96 179.207 98.488 167.133 101.998 155.496C137.928 168.297 179.334 176 224 176S310.072 168.297 346.002 155.496Z" class="fa-secondary"/><path d="M319.695 352.508L224 416L128.305 352.508C57.053 355.211 0 413.418 0 485.332C0 500.059 11.941 512 26.664 512H421.336C436.059 512 448 500.059 448 485.332C448 413.418 390.953 355.211 319.695 352.508ZM368 448H336C327.164 448 320 440.836 320 432C320 423.162 327.164 416 336 416H368C376.836 416 384 423.162 384 432C384 440.836 376.836 448 368 448ZM78.545 102.408V146.453C119.143 164.918 169.381 176 224 176S328.857 164.918 369.455 146.453V102.408L391.416 80.104C395.98 75.469 398.545 69.178 398.545 62.623C398.545 51.275 390.943 41.387 380.105 38.637L231.762 0.971C226.666 -0.324 221.334 -0.324 216.238 0.971L67.895 38.637C57.057 41.387 49.455 51.275 49.455 62.623C49.455 69.178 52.02 75.469 56.584 80.104L78.545 102.408ZM161.688 72.844C165.656 64.969 175.25 61.75 183.156 65.688L224 86.125L264.844 65.687C272.781 61.719 282.344 64.937 286.312 72.844C290.25 80.75 287.062 90.344 279.156 94.312L231.156 118.312C228.906 119.438 226.438 120 224 120S219.094 119.438 216.844 118.312L168.844 94.312C160.938 90.344 157.75 80.75 161.688 72.844Z" class="fa-primary"/></svg>
